modules/themify-icons/icons/window.svg

<?xml version="1.0" encoding="utf-8"?>
<!-- Generated by IcoMoon.io -->
<!DOCTYPE svg PUBLIC "-//W3C//DTD SVG 1.1//EN" "http://www.w3.org/Graphics/SVG/1.1/DTD/svg11.dtd">
<svg version="1.1" xmlns="http://www.w3.org/2000/svg" xmlns:xlink="http://www.w3.org/1999/xlink" width="17" height="17" viewBox="0 0 17 17">
<g>
</g>
	<path d="M0 1v15h17v-15h-17zM16 2v3h-15v-3h15zM1 15v-9h15v9h-15zM7 4h-1v-1h1v1zM5 4h-1v-1h1v1zM3 4h-1v-1h1v1z" fill="#000000" />
</svg>

<svg xmlns="http://www.w3.org/2000/svg" width="17" height="17"><path d="M0 1v15h17V1H0zm16 1v3H1V2h15zM1 15V6h15v9H1zM7 4H6V3h1v1zM5 4H4V3h1v1zM3 4H2V3h1v1z"/></svg>
